X:807
T:Jolly Clamdiggers, The
T:Jolly Clamdigger, The
T:Old Blackthorn, The
T:Blackthorn Stick, The
T:Old Blackthorn Stick, The
R:reel
D:De Dannan 1
Z:id:hn-reel-807
M:C|
L:1/8
K:D
d2FB AFEF | D2dc BABc | dF~F2 dFAF | GBAF Dgfe |
d2FB AFEF | D2dc BABc | dF~F2 AF~F2 | GBAF D4 ||
|: d2 (3fed egfd | A2 (3cBA eAcA | defg ~a3b | afeg fddc :|
P:variations
|: d2FB AFEF | D2dc BABc | dF~F2 AF~F2 | GBAF D2 (3gfe |
d2FB AFEF | D2dc BABc | dF~F2 AF~F2 | GBAF D4 ||
|: defd (3efg fd | A2cA eAcA | defg a2ab | afeg fddc :|

